files/2024-06-05/svg/work/MuseumPool.svg

<?xml version="1.0" encoding="UTF-8" standalone="no"?>
<!-- Created with Inkscape (http://www.inkscape.org/) -->

<svg
   width="48"
   height="48"
   viewBox="0 0 48 48"
   version="1.1"
   id="svg1"
   xml:space="preserve"
   inkscape:version="1.3.2 (091e20e, 2023-11-25, custom)"
   sodipodi:docname="MuseumPool.svg"
   xmlns:inkscape="http://www.inkscape.org/namespaces/inkscape"
   xmlns:sodipodi="http://sodipodi.sourceforge.net/DTD/sodipodi-0.dtd"
   xmlns="http://www.w3.org/2000/svg"
   xmlns:svg="http://www.w3.org/2000/svg"><sodipodi:namedview
     id="namedview1"
     pagecolor="#505050"
     bordercolor="#eeeeee"
     borderopacity="1"
     inkscape:showpageshadow="0"
     inkscape:pageopacity="0"
     inkscape:pagecheckerboard="0"
     inkscape:deskcolor="#505050"
     inkscape:document-units="px"
     inkscape:zoom="12.683728"
     inkscape:cx="34.847799"
     inkscape:cy="16.280702"
     inkscape:window-width="1920"
     inkscape:window-height="1057"
     inkscape:window-x="-8"
     inkscape:window-y="-8"
     inkscape:window-maximized="1"
     inkscape:current-layer="svg1" /><defs
     id="defs1" /><path
     id="path4"
     style="fill:none;stroke:#ffffff;stroke-width:0.999999;stroke-linecap:round;stroke-linejoin:round;stroke-opacity:1;-inkscape-stroke:none"
     d="m 19.7175,21.410474 0.07025,0.06002 m 0,0 4.212246,3.598236 4.212242,-3.598238 m 0,0 0.07026,-0.06002 m -8.494738,5.228876 4.212241,3.598235 4.212242,-3.598237 M 9.2490904,21.411432 V 36.387106 H 7.0927977 v 1.36598 H 5.5000001 v 3.591656 H 42.5 v -3.591656 h -1.592798 v -1.36598 H 38.750914 V 21.411432 h -4.144782 v 14.975674 h -2.24895 V 21.411432 H 28.2124 V 36.387106 H 19.7876 V 21.411432 H 15.642819 V 36.387106 H 13.393868 V 21.411432 Z M 7.2436207,16.924983 H 40.756381 V 19.40376 H 7.2436207 Z M 38.636444,14.918271 V 13.73784 L 24.062549,6.6552527 9.4886537,13.73784 v 1.180431 z" /></svg>

<?xml version="1.0" encoding="UTF-8"?>
<svg width="48" height="48" version="1.1" viewBox="0 0 48 48" xml:space="preserve" xmlns="http://www.w3.org/2000/svg"><path d="m19.718 21.41 0.07025 0.06002m0 0 4.2122 3.5982 4.2122-3.5982m0 0 0.07026-0.06002m-8.4947 5.2289 4.2122 3.5982 4.2122-3.5982m-18.963-5.2279v14.976h-2.1563v1.366h-1.5928v3.5917h37v-3.5917h-1.5928v-1.366h-2.1563v-14.976h-4.1448v14.976h-2.249v-14.976h-4.1448v14.976h-8.4248v-14.976h-4.1448v14.976h-2.249v-14.976zm-2.0055-4.4864h33.513v2.4788h-33.513zm31.393-2.0067v-1.1804l-14.574-7.0826-14.574 7.0826v1.1804z" fill="none" stroke="#fff" stroke-linecap="round" stroke-linejoin="round" style="-inkscape-stroke:none"/></svg>
